src/next/cmd/lc_wrapcontour.svg

<svg height="24" width="24" xmlns="http://www.w3.org/2000/svg" xmlns:xlink="http://www.w3.org/1999/xlink"><filter id="a"><feGaussianBlur stdDeviation="2.0786429"/></filter><radialGradient id="b" cx="109.42462" cy="127.15892" gradientTransform="matrix(1 0 0 .9996653 -8.000004 3.603016)" gradientUnits="userSpaceOnUse" r="139.55859"><stop offset="0" stop-color="#b7b8b9"/><stop offset=".18851049" stop-color="#ececec"/><stop offset=".25718147" stop-color="#fafafa"/><stop offset=".30111277" stop-color="#fff"/><stop offset=".5313" stop-color="#fafafa"/><stop offset=".8449" stop-color="#ebecec"/><stop offset="1" stop-color="#e1e2e3"/></radialGradient><clipPath id="c"><path d="m0 0h128v128h-128z"/></clipPath><g clip-path="url(#c)" transform="matrix(.1875 0 0 .1875 -.4999995 -.424985625)"><path d="m5.9999943 6.6.04 116.69993h116.7399257l-.04-116.69993z" filter="url(#a)" opacity=".553903"/><path d="m7.9999943 7.6v111.99993h111.2361757l.83598-.004.008-.8398-.08023-111.15613z" fill="#fff"/><path d="m14.999994 13.2c-.551 0-1 .449185-1 1l-.18 99.57993 99.109926.02c.69134 0 1.35-1.06653 1.35-1.84375l-.14-97.55618c0-.550815-.448-1-1-1z" fill="url(#b)"/><g fill="#404040" fill-opacity=".839216"><path d="m-109.33327 18.266661h90.666611v5.333331h-90.666611z" transform="scale(-1 1)"/><path d="m16 96v5.33398h54.3125a9.0631907 9.0631907 0 0 1 -6.054688-5.33398zm77.890625 0a9.0631907 9.0631907 0 0 1 -6.085937 5.33398h18.861332v-5.33398z" transform="translate(2.666664 2.26659)"/><path d="m16 32v5.333984h13.189453c.508715-1.796546 1.180113-3.575207 2.023438-5.333984zm35.666016 0c.07673.554484.0868.584544.173828 1.255859.172345 1.329387.283805 2.676297.382812 4.078125h15.6875a9.0631907 9.0631907 0 0 1 16.177735 0h22.578129v-5.333984z" transform="translate(2.666664 2.26659)"/><path d="m16 48v5.333984h13.013672c-.369345-1.776877-.643052-3.547164-.791016-5.333984zm39.972656 0c1.162004 1.981571 2.53573 3.707588 4.105469 5.333984h7.044922c-.221531-.759067-.428026-1.5501-.601563-2.417968-.185527-.927832-.306187-1.906443-.363281-2.916016zm32.958985 0c.578309 1.439674 1.233037 3.203523 1.972656 5.333984h15.761723v-5.333984z" transform="translate(2.666664 2.26659)"/><path d="m16 64v5.333984h18.464844c-.820036-1.669774-1.57995-3.456895-2.302735-5.333984zm77.666016 0c.161525 1.667784.248785 3.465731.316406 5.333984h12.683598v-5.333984z" transform="translate(2.666664 2.26659)"/><path d="m16 80v5.333984h32.054688c-1.348729-.8988-2.661738-1.871321-3.925782-2.972656-.851923-.742263-1.665234-1.532785-2.447265-2.361328zm78.244141 0c.03491 1.812888.07161 3.60728.109375 5.333984h12.312504v-5.333984z" transform="translate(2.666664 2.26659)"/></g><path d="m88.174619 94.846118c-.427769-9.51911-.261371-25.031438-1.218745-30.413812-6.191669-19.445583-6.268416-13.62971-8.287355-20.751997-1.94666 6.292789-.29165 9.293039 1.94997 15.037659 1.021633 6.786647-1.874818 14.713931-2.924971 17.744533-15.105688-7.986829-27.902733-15.523694-31.686943-34.887477 0-1.80456-.974986-8.421142-.974986-8.421142-6.452409 9.178232-6.151639 15.157635-3.168691 25.864881 5.952573 18.465901 13.401143 22.276736 29.026358 27.970166.969211.288544 3.866985.402874 4.387429 1.503765.522797.851616.02813 4.216563.03034 6.353424z" fill="#06f" fill-rule="evenodd"/></g></svg>

<?xml version="1.0" encoding="UTF-8" standalone="no"?>
<svg
   xmlns:dc="http://purl.org/dc/elements/1.1/"
   xmlns:cc="http://creativecommons.org/ns#"
   xmlns:rdf="http://www.w3.org/1999/02/22-rdf-syntax-ns#"
   xmlns:svg="http://www.w3.org/2000/svg"
   xmlns="http://www.w3.org/2000/svg"
   xmlns:sodipodi="http://sodipodi.sourceforge.net/DTD/sodipodi-0.dtd"
   xmlns:inkscape="http://www.inkscape.org/namespaces/inkscape"
   height="24"
   width="24"
   version="1.1"
   id="svg47"
   sodipodi:docname="lc_wrapcontour.svg"
   inkscape:version="0.92.4 (unknown)">
  <metadata
     id="metadata53">
    <rdf:RDF>
      <cc:Work
         rdf:about="">
        <dc:format>image/svg+xml</dc:format>
        <dc:type
           rdf:resource="http://purl.org/dc/dcmitype/StillImage" />
        <dc:title></dc:title>
      </cc:Work>
    </rdf:RDF>
  </metadata>
  <defs
     id="defs51" />
  <sodipodi:namedview
     pagecolor="#ffffff"
     bordercolor="#666666"
     borderopacity="1"
     objecttolerance="10"
     gridtolerance="10"
     guidetolerance="10"
     inkscape:pageopacity="0"
     inkscape:pageshadow="2"
     inkscape:window-width="1366"
     inkscape:window-height="714"
     id="namedview49"
     showgrid="true"
     inkscape:zoom="10.429825"
     inkscape:cx="17.476313"
     inkscape:cy="7.5414241"
     inkscape:window-x="0"
     inkscape:window-y="28"
     inkscape:window-maximized="1"
     inkscape:current-layer="g877">
    <inkscape:grid
       type="xygrid"
       id="grid860" />
  </sodipodi:namedview>
  <filter
     id="a">
    <feGaussianBlur
       stdDeviation="2.0786429"
       id="feGaussianBlur2" />
  </filter>
  <radialGradient
     id="b"
     cx="109.42462"
     cy="127.15892"
     gradientTransform="matrix(1,0,0,0.9996653,-8.000004,3.603016)"
     gradientUnits="userSpaceOnUse"
     r="139.55859">
    <stop
       offset="0"
       stop-color="#b7b8b9"
       id="stop5" />
    <stop
       offset=".18851049"
       stop-color="#ececec"
       id="stop7" />
    <stop
       offset=".25718147"
       stop-color="#fafafa"
       id="stop9" />
    <stop
       offset=".30111277"
       stop-color="#fff"
       id="stop11" />
    <stop
       offset=".5313"
       stop-color="#fafafa"
       id="stop13" />
    <stop
       offset=".8449"
       stop-color="#ebecec"
       id="stop15" />
    <stop
       offset="1"
       stop-color="#e1e2e3"
       id="stop17" />
  </radialGradient>
  <clipPath
     id="c">
    <path
       d="M 0,0 H 128 V 128 H 0 Z"
       id="path20"
       inkscape:connector-curvature="0" />
  </clipPath>
  <g
     id="g877"
     transform="scale(0.1875)">
    <g
       id="g45"
       transform="translate(-2.666664,-2.26659)"
       clip-path="url(#c)">
      <path
         id="path23"
         d="m 5.9999943,6.6 0.04,116.69993 H 122.77992 L 122.73992,6.6 Z"
         inkscape:connector-curvature="0"
         style="opacity:0.55390296;filter:url(#a)" />
      <path
         id="path25"
         d="M 7.9999943,7.6 V 119.59993 H 119.23617 l 0.83598,-0.004 0.008,-0.8398 L 119.99992,7.6 Z"
         inkscape:connector-curvature="0"
         style="fill:#ffffff" />
      <path
         id="path27"
         d="m 14.999994,13.2 c -0.551,0 -1,0.449185 -1,1 l -0.18,99.57993 99.109926,0.02 c 0.69134,0 1.35,-1.06653 1.35,-1.84375 L 114.13992,14.4 c 0,-0.550815 -0.448,-1 -1,-1 z"
         style="fill:url(#b)"
         inkscape:connector-curvature="0" />
      <g
         id="g41"
         style="fill:#404040;fill-opacity:0.83921599">
        <path
           id="path29"
           transform="scale(-1,1)"
           d="m -109.33327,18.266661 h 90.666611 v 5.333331 h -90.666611 z"
           inkscape:connector-curvature="0" />
        <path
           id="path31"
           transform="translate(2.666664,2.26659)"
           d="m 16,96 v 5.33398 H 70.3125 A 9.0631907,9.0631907 0 0 1 64.257812,96 Z m 77.890625,0 a 9.0631907,9.0631907 0 0 1 -6.085937,5.33398 H 106.66602 V 96 Z"
           inkscape:connector-curvature="0" />
        <path
           id="path33"
           transform="translate(2.666664,2.26659)"
           d="m 16,32 v 5.333984 H 29.189453 C 29.698168,35.537438 30.369566,33.758777 31.212891,32 Z m 35.666016,0 c 0.07673,0.554484 0.0868,0.584544 0.173828,1.255859 0.172345,1.329387 0.283805,2.676297 0.382812,4.078125 h 15.6875 a 9.0631907,9.0631907 0 0 1 16.177735,0 H 106.66602 V 32 Z"
           inkscape:connector-curvature="0" />
        <path
           id="path35"
           transform="translate(2.666664,2.26659)"
           d="m 16,48 v 5.333984 H 29.013672 C 28.644327,51.557107 28.37062,49.78682 28.222656,48 Z m 39.972656,0 c 1.162004,1.981571 2.53573,3.707588 4.105469,5.333984 h 7.044922 C 66.901516,52.574917 66.695021,51.783884 66.521484,50.916016 66.335957,49.988184 66.215297,49.009573 66.158203,48 Z m 32.958985,0 c 0.578309,1.439674 1.233037,3.203523 1.972656,5.333984 H 106.66602 V 48 Z"
           inkscape:connector-curvature="0" />
        <path
           id="path37"
           transform="translate(2.666664,2.26659)"
           d="m 16,64 v 5.333984 H 34.464844 C 33.644808,67.66421 32.884894,65.877089 32.162109,64 Z m 77.666016,0 c 0.161525,1.667784 0.248785,3.465731 0.316406,5.333984 H 106.66602 V 64 Z"
           inkscape:connector-curvature="0" />
        <path
           id="path39"
           transform="translate(2.666664,2.26659)"
           d="m 16,80 v 5.333984 H 48.054688 C 46.705959,84.435184 45.39295,83.462663 44.128906,82.361328 43.276983,81.619065 42.463672,80.828543 41.681641,80 Z m 78.244141,0 c 0.03491,1.812888 0.07161,3.60728 0.109375,5.333984 H 106.66602 V 80 Z"
           inkscape:connector-curvature="0" />
      </g>
      <path
         id="path43"
         d="M 88.174619,94.846118 C 87.74685,85.327008 87.913248,69.81468 86.955874,64.432306 80.764205,44.986723 80.687458,50.802596 78.668519,43.680309 c -1.94666,6.292789 -0.29165,9.293039 1.94997,15.037659 1.021633,6.786647 -1.874818,14.713931 -2.924971,17.744533 C 62.58783,68.475672 49.790785,60.938807 46.006575,41.575024 c 0,-1.80456 -0.974986,-8.421142 -0.974986,-8.421142 -6.452409,9.178232 -6.151639,15.157635 -3.168691,25.864881 5.952573,18.465901 13.401143,22.276736 29.026358,27.970166 0.969211,0.288544 3.866985,0.402874 4.387429,1.503765 0.522797,0.851616 0.02813,4.216563 0.03034,6.353424 z"
         inkscape:connector-curvature="0"
         style="fill:#0066ff;fill-rule:evenodd" />
    </g>
  </g>
</svg>
